src/assets/dark/EmailNotifications.svg

<svg width="180" height="180" viewBox="0 0 180 180" fill="none" xmlns="http://www.w3.org/2000/svg">
<path fill-rule="evenodd" clip-rule="evenodd" d="M180 89.9698C180 139.514 139.705 179.677 90 179.677C40.2946 179.677 0 139.514 0 89.9698C0 40.4262 40.2946 0.263672 90 0.263672C139.705 0.263672 180 40.4262 180 89.9698Z" fill="#15134A"/>
<path d="M151.835 102.258C152.315 102.258 152.315 103.008 151.835 103.008C151.345 103.008 151.345 102.258 151.835 102.258Z" fill="#403D85"/>
<path d="M140.745 93.2461C141.225 93.2461 141.225 93.9961 140.745 93.9961C140.265 93.9961 140.265 93.2461 140.745 93.2461Z" fill="#403D85"/>
<path d="M163.615 88.8574C164.095 88.8574 164.095 89.6074 163.615 89.6074C163.135 89.6074 163.135 88.8574 163.615 88.8574Z" fill="#403D85"/>
<path d="M152.525 89.3164C153.005 89.3164 153.005 90.0664 152.525 90.0664C152.045 90.0664 152.045 89.3164 152.525 89.3164Z" fill="#403D85"/>
<path d="M174.005 92.7871C174.485 92.7871 174.485 93.5371 174.005 93.5371C173.525 93.5371 173.525 92.7871 174.005 92.7871Z" fill="#403D85"/>
<path fill-rule="evenodd" clip-rule="evenodd" d="M153.995 84.1264L154.915 83.6064L153.975 83.1164L153.455 82.2064L152.965 83.1364L152.055 83.6564L152.985 84.1464L153.505 85.0664L153.995 84.1264Z" fill="#403D85"/>
<path fill-rule="evenodd" clip-rule="evenodd" d="M159.405 113.447L161.205 112.417L159.365 111.457L158.345 109.657L157.375 111.487L155.575 112.517L157.415 113.487L158.445 115.287L159.405 113.447Z" fill="#403D85"/>
<path d="M49.723 52.2266C50.203 52.2266 50.203 51.4766 49.723 51.4766C49.233 51.4766 49.233 52.2266 49.723 52.2266Z" fill="#403D85"/>
<path d="M27.7838 58.584C28.2638 58.584 28.2638 57.834 27.7838 57.834C27.3038 57.834 27.3038 58.584 27.7838 58.584Z" fill="#403D85"/>
<path d="M61.5028 65.627C61.9828 65.627 61.9828 64.877 61.5028 64.877C61.0228 64.877 61.0228 65.627 61.5028 65.627Z" fill="#403D85"/>
<path d="M50.413 65.168C50.893 65.168 50.893 64.418 50.413 64.418C49.933 64.418 49.933 65.168 50.413 65.168Z" fill="#403D85"/>
<path d="M81.1429 76.7168C81.6229 76.7168 81.6229 75.9668 81.1429 75.9668C80.6529 75.9668 80.6529 76.7168 81.1429 76.7168Z" fill="#403D85"/>
<path d="M80.903 66.7871C81.383 66.7871 81.383 66.0371 80.903 66.0371C80.423 66.0371 80.423 66.7871 80.903 66.7871Z" fill="#403D85"/>
<path d="M71.893 61.6973C72.373 61.6973 72.373 60.9473 71.893 60.9473C71.413 60.9473 71.413 61.6973 71.893 61.6973Z" fill="#403D85"/>
<path d="M90.843 80.6484C91.323 80.6484 91.323 79.8984 90.843 79.8984C90.363 79.8984 90.353 80.6484 90.843 80.6484Z" fill="#403D85"/>
<path fill-rule="evenodd" clip-rule="evenodd" d="M41.1729 51.6275L42.0829 52.1475L41.1529 52.6275L40.6329 53.5475L40.1429 52.6175L39.2329 52.0875L40.1629 51.6075L40.6829 50.6875L41.1729 51.6275Z" fill="#403D85"/>
<path fill-rule="evenodd" clip-rule="evenodd" d="M127.993 77.6468L128.903 78.1668L127.973 78.6568L127.453 79.5668L126.963 78.6368L126.053 78.1168L126.983 77.6268L127.503 76.7168L127.993 77.6468Z" fill="#403D85"/>
<path fill-rule="evenodd" clip-rule="evenodd" d="M13.4067 73.092L15.2067 74.122L13.3667 75.082L12.3467 76.882L11.3767 75.052L9.57666 74.022L11.4167 73.052L12.4467 71.252L13.4067 73.092Z" fill="#403D85"/>
<path d="M89.5538 32.6133C90.0338 32.6133 90.0338 31.8633 89.5538 31.8633C89.0638 31.8633 89.0638 32.6133 89.5538 32.6133Z" fill="#403D85"/>
<path d="M78.4638 41.6211C78.9438 41.6211 78.9438 40.8711 78.4638 40.8711C77.9838 40.8711 77.9838 41.6211 78.4638 41.6211Z" fill="#403D85"/>
<path d="M101.334 46.0117C101.814 46.0117 101.814 45.2617 101.334 45.2617C100.854 45.2617 100.854 46.0117 101.334 46.0117Z" fill="#403D85"/>
<path d="M90.2438 45.5508C90.7238 45.5508 90.7238 44.8008 90.2438 44.8008C89.7638 44.8008 89.7638 45.5508 90.2438 45.5508Z" fill="#403D85"/>
<path d="M120.974 57.1016C121.454 57.1016 121.454 56.3516 120.974 56.3516C120.484 56.3516 120.484 57.1016 120.974 57.1016Z" fill="#403D85"/>
<path d="M120.734 47.1719C121.214 47.1719 121.214 46.4219 120.734 46.4219C120.254 46.4219 120.254 47.1719 120.734 47.1719Z" fill="#403D85"/>
<path d="M111.724 42.082C112.204 42.082 112.204 41.332 111.724 41.332C111.244 41.332 111.244 42.082 111.724 42.082Z" fill="#403D85"/>
<path d="M130.674 61.0312C131.154 61.0312 131.154 60.2812 130.674 60.2812C130.194 60.2812 130.184 61.0312 130.674 61.0312Z" fill="#403D85"/>
<path fill-rule="evenodd" clip-rule="evenodd" d="M81.0037 32.0123L81.9137 32.5323L80.9837 33.0123L80.4637 33.9323L79.9737 33.0023L79.0637 32.4723L79.9937 31.9923L80.5137 31.0723L81.0037 32.0123Z" fill="#403D85"/>
<path fill-rule="evenodd" clip-rule="evenodd" d="M13.6597 99.5005L14.5697 100.021L13.6397 100.501L13.1197 101.421L12.6297 100.491L11.7197 99.9605L12.6497 99.4805L13.1697 98.5605L13.6597 99.5005Z" fill="#403D85"/>
<path fill-rule="evenodd" clip-rule="evenodd" d="M127.994 52.3323L128.904 52.8523L127.974 53.3423L127.454 54.2523L126.964 53.3223L126.054 52.8023L126.984 52.3123L127.504 51.4023L127.994 52.3323Z" fill="#403D85"/>
<path fill-rule="evenodd" clip-rule="evenodd" d="M91.7137 50.7408L92.6337 51.2608L91.6937 51.7508L91.1737 52.6608L90.6837 51.7308L89.7737 51.2108L90.7037 50.7208L91.2237 49.8008L91.7137 50.7408Z" fill="#403D85"/>
<path fill-rule="evenodd" clip-rule="evenodd" d="M97.1237 21.422L98.9237 22.452L97.0837 23.412L96.0637 25.212L95.0937 23.382L93.2937 22.352L95.1337 21.382L96.1637 19.582L97.1237 21.422Z" fill="#403D85"/>
<path d="M107.579 89.5664C108.059 89.5664 108.059 88.8164 107.579 88.8164C107.089 88.8164 107.089 89.5664 107.579 89.5664Z" fill="#403D85"/>
<path d="M85.6395 95.9238C86.1195 95.9238 86.1195 95.1738 85.6395 95.1738C85.1595 95.1738 85.1595 95.9238 85.6395 95.9238Z" fill="white"/>
<path d="M119.359 102.965C119.839 102.965 119.839 102.215 119.359 102.215C118.879 102.215 118.879 102.965 119.359 102.965Z" fill="#403D85"/>
<path d="M108.269 102.506C108.749 102.506 108.749 101.756 108.269 101.756C107.789 101.756 107.789 102.506 108.269 102.506Z" fill="#403D85"/>
<path d="M138.999 114.055C139.479 114.055 139.479 113.305 138.999 113.305C138.509 113.305 138.509 114.055 138.999 114.055Z" fill="#403D85"/>
<path d="M138.759 104.125C139.239 104.125 139.239 103.375 138.759 103.375C138.279 103.375 138.279 104.125 138.759 104.125Z" fill="#403D85"/>
<path d="M129.749 99.0352C130.229 99.0352 130.229 98.2852 129.749 98.2852C129.269 98.2852 129.269 99.0352 129.749 99.0352Z" fill="#403D85"/>
<path d="M148.699 117.986C149.179 117.986 149.179 117.236 148.699 117.236C148.219 117.236 148.209 117.986 148.699 117.986Z" fill="#403D85"/>
<path fill-rule="evenodd" clip-rule="evenodd" d="M94.0289 88.9654L94.9389 89.4854L94.0089 89.9654L93.4889 90.8854L92.9989 89.9554L92.0889 89.4254L93.0189 88.9454L93.5389 88.0254L94.0289 88.9654Z" fill="#403D85"/>
<path fill-rule="evenodd" clip-rule="evenodd" d="M146.019 109.285L146.929 109.805L145.999 110.295L145.479 111.205L144.989 110.275L144.079 109.755L145.009 109.265L145.529 108.355L146.019 109.285Z" fill="#403D85"/>
<path fill-rule="evenodd" clip-rule="evenodd" d="M78.9374 103.26L80.7374 104.29L78.8974 105.25L77.8774 107.05L76.9074 105.22L75.1074 104.19L76.9474 103.22L77.9774 101.42L78.9374 103.26Z" fill="white"/>
<path d="M13.7996 124.199C14.2796 124.199 14.2796 123.449 13.7996 123.449C13.3196 123.449 13.3196 124.199 13.7996 124.199Z" fill="#403D85"/>
<path d="M27.4394 132.289C27.9194 132.289 27.9194 131.539 27.4394 131.539C26.9494 131.539 26.9494 132.289 27.4394 132.289Z" fill="#403D85"/>
<path d="M27.1995 122.359C27.6795 122.359 27.6795 121.609 27.1995 121.609C26.7195 121.609 26.7195 122.359 27.1995 122.359Z" fill="#403D85"/>
<path d="M37.1395 136.221C37.6195 136.221 37.6195 135.471 37.1395 135.471C36.6595 135.471 36.6495 136.221 37.1395 136.221Z" fill="#403D85"/>
<path fill-rule="evenodd" clip-rule="evenodd" d="M34.4594 127.52L35.3694 128.04L34.4394 128.53L33.9194 129.44L33.4294 128.51L32.5194 127.99L33.4494 127.5L33.9694 126.59L34.4594 127.52Z" fill="#403D85"/>
<circle cx="41.0214" cy="33.3503" r="1.48701" fill="#403D85"/>
<circle cx="130.108" cy="131.526" r="1.48701" fill="#403D85"/>
<circle opacity="0.8" cx="61.9677" cy="19.6003" r="1.48701" fill="#403D85"/>
<circle opacity="0.8" cx="87.2162" cy="8.27623" r="0.686385" fill="#403D85"/>
<rect x="60.8888" y="114.164" width="18.5782" height="24.5931" fill="url(#paint0_linear)"/>
<path d="M33.7268 62.4434C26.2874 78.1977 38.5282 102.58 62.5532 118.582C86.5782 134.584 113.794 136.483 125.465 123.546L33.7268 62.4434Z" fill="url(#paint1_linear)"/>
<path d="M42.5088 141.83C42.5088 140.132 43.8852 138.756 45.5831 138.756H94.7721C96.47 138.756 97.8464 140.132 97.8464 141.83V146.442H42.5088V141.83Z" fill="#211E70"/>
<line x1="97.9479" y1="65.1521" x2="57.4523" y2="78.8117" stroke="#373389" stroke-width="1.53716"/>
<line y1="-0.768578" x2="42.7374" y2="-0.768578" transform="matrix(0.0702482 0.99753 0.99753 -0.0702482 98.9816 65.2754)" stroke="#373389" stroke-width="1.53716"/>
<line x1="98.3416" y1="64.8499" x2="78.7427" y2="94.2749" stroke="#373389" stroke-width="1.53716"/>
<rect x="34.6794" y="59.2188" width="112.212" height="4.74933" rx="2.37466" transform="rotate(33.666 34.6794 59.2188)" fill="#1E1B68"/>
<circle cx="98.1233" cy="64.4238" r="4.5" fill="#373389"/>
<path fill-rule="evenodd" clip-rule="evenodd" d="M159.933 146.441C143.432 166.718 118.234 179.677 89.9999 179.677C61.7654 179.677 36.5675 166.718 20.0667 146.441H159.933Z" fill="#0A0923" fill-opacity="0.3"/>
<path fill-rule="evenodd" clip-rule="evenodd" d="M164.208 61.4205H123.555C120.426 61.4205 117.891 58.8887 117.891 55.7655V15.1716C117.891 12.0493 120.426 9.51758 123.555 9.51758H164.208C167.337 9.51758 169.874 12.0493 169.874 15.1716V55.7655C169.874 58.8887 167.337 61.4205 164.208 61.4205Z" fill="url(#paint2_linear)"/>
<g clip-path="url(#clip0)">
<path d="M154.401 23.8691H133.222C131.121 23.8691 129.411 25.5731 129.411 27.6674V43.4996C129.411 45.594 131.121 47.2978 133.222 47.2978H154.401C156.502 47.2978 158.211 45.5939 158.211 43.4996V27.6674C158.211 25.573 156.502 23.8691 154.401 23.8691ZM155.885 43.4996C155.885 44.3151 155.219 44.9787 154.401 44.9787H133.222C132.404 44.9787 131.738 44.3151 131.738 43.4996V27.6674C131.738 26.8519 132.404 26.1883 133.222 26.1883H154.401C155.219 26.1883 155.885 26.8519 155.885 27.6674V43.4996Z" fill="white"/>
<path d="M158.001 27.0026C157.632 26.478 156.907 26.3504 156.381 26.7176L143.811 35.4874L131.242 26.7175C130.715 26.3502 129.99 26.4779 129.622 27.0025C129.253 27.5271 129.381 28.2502 129.908 28.6174L143.144 37.8529C143.344 37.9927 143.578 38.0625 143.811 38.0625C144.045 38.0625 144.278 37.9926 144.478 37.8529L157.715 28.6175C158.241 28.2502 158.369 27.5272 158.001 27.0026Z" fill="white"/>
</g>
<defs>
<linearGradient id="paint0_linear" x1="70.178" y1="138.757" x2="70.178" y2="114.164" gradientUnits="userSpaceOnUse">
<stop offset="0.000490735" stop-color="#1E1B6D"/>
<stop offset="1" stop-color="#15154E"/>
</linearGradient>
<linearGradient id="paint1_linear" x1="62.5537" y1="118.582" x2="79.5961" y2="92.9951" gradientUnits="userSpaceOnUse">
<stop offset="0.000490735" stop-color="#1E1B6D"/>
<stop offset="1" stop-color="#15154E"/>
</linearGradient>
<linearGradient id="paint2_linear" x1="74" y1="100" x2="170" y2="16" gradientUnits="userSpaceOnUse">
<stop stop-color="#E9507D"/>
<stop offset="1" stop-color="#9B32A5"/>
</linearGradient>
<clipPath id="clip0">
<rect width="28.8" height="28.7063" fill="white" transform="translate(129.411 21.2305)"/>
</clipPath>
</defs>
</svg>

<svg width="180" height="180" fill="none" xmlns="http://www.w3.org/2000/svg"><path fill-rule="evenodd" clip-rule="evenodd" d="M180 89.97c0 49.544-40.295 89.707-90 89.707S0 139.514 0 89.97 40.295.264 90 .264s90 40.162 90 89.706z" fill="#15134A"/><path d="M151.835 102.258c.48 0 .48.75 0 .75-.49 0-.49-.75 0-.75zM140.745 93.246c.48 0 .48.75 0 .75s-.48-.75 0-.75zM163.615 88.857c.48 0 .48.75 0 .75s-.48-.75 0-.75zM152.525 89.316c.48 0 .48.75 0 .75s-.48-.75 0-.75zM174.005 92.787c.48 0 .48.75 0 .75s-.48-.75 0-.75z" fill="#403D85"/><path fill-rule="evenodd" clip-rule="evenodd" d="M153.995 84.126l.92-.52-.94-.49-.52-.91-.49.93-.91.52.93.49.52.92.49-.94zM159.405 113.447l1.8-1.03-1.84-.96-1.02-1.8-.97 1.83-1.8 1.03 1.84.97 1.03 1.8.96-1.84z" fill="#403D85"/><path d="M49.723 52.227c.48 0 .48-.75 0-.75-.49 0-.49.75 0 .75zM27.784 58.584c.48 0 .48-.75 0-.75s-.48.75 0 .75zM61.503 65.627c.48 0 .48-.75 0-.75s-.48.75 0 .75zM50.413 65.168c.48 0 .48-.75 0-.75s-.48.75 0 .75zM81.143 76.717c.48 0 .48-.75 0-.75-.49 0-.49.75 0 .75zM80.903 66.787c.48 0 .48-.75 0-.75s-.48.75 0 .75zM71.893 61.697c.48 0 .48-.75 0-.75s-.48.75 0 .75zM90.843 80.648c.48 0 .48-.75 0-.75s-.49.75 0 .75z" fill="#403D85"/><path fill-rule="evenodd" clip-rule="evenodd" d="M41.173 51.627l.91.52-.93.48-.52.92-.49-.93-.91-.53.93-.48.52-.92.49.94zM127.993 77.647l.91.52-.93.49-.52.91-.49-.93-.91-.52.93-.49.52-.91.49.93zM13.407 73.092l1.8 1.03-1.84.96-1.02 1.8-.97-1.83-1.8-1.03 1.84-.97 1.03-1.8.96 1.84z" fill="#403D85"/><path d="M89.554 32.613c.48 0 .48-.75 0-.75-.49 0-.49.75 0 .75zM78.464 41.621c.48 0 .48-.75 0-.75s-.48.75 0 .75zM101.334 46.012c.48 0 .48-.75 0-.75s-.48.75 0 .75zM90.244 45.55c.48 0 .48-.75 0-.75s-.48.75 0 .75zM120.974 57.102c.48 0 .48-.75 0-.75-.49 0-.49.75 0 .75zM120.734 47.172c.48 0 .48-.75 0-.75s-.48.75 0 .75zM111.724 42.082c.48 0 .48-.75 0-.75s-.48.75 0 .75zM130.674 61.031c.48 0 .48-.75 0-.75s-.49.75 0 .75z" fill="#403D85"/><path fill-rule="evenodd" clip-rule="evenodd" d="M81.004 32.012l.91.52-.93.48-.52.92-.49-.93-.91-.53.93-.48.52-.92.49.94zM13.66 99.5l.91.521-.93.48-.52.92-.49-.93-.91-.53.93-.48.52-.92.49.94zM127.994 52.332l.91.52-.93.49-.52.91-.49-.93-.91-.52.93-.49.52-.91.49.93zM91.714 50.74l.92.52-.94.49-.52.91-.49-.93-.91-.52.93-.49.52-.92.49.94zM97.124 21.422l1.8 1.03-1.84.96-1.02 1.8-.97-1.83-1.8-1.03 1.84-.97 1.03-1.8.96 1.84z" fill="#403D85"/><path d="M107.579 89.566c.48 0 .48-.75 0-.75-.49 0-.49.75 0 .75z" fill="#403D85"/><path d="M85.64 95.924c.48 0 .48-.75 0-.75s-.48.75 0 .75z" fill="#fff"/><path d="M119.359 102.965c.48 0 .48-.75 0-.75s-.48.75 0 .75zM108.269 102.506c.48 0 .48-.75 0-.75s-.48.75 0 .75zM138.999 114.055c.48 0 .48-.75 0-.75-.49 0-.49.75 0 .75zM138.759 104.125c.48 0 .48-.75 0-.75s-.48.75 0 .75zM129.749 99.035c.48 0 .48-.75 0-.75s-.48.75 0 .75zM148.699 117.986c.48 0 .48-.75 0-.75s-.49.75 0 .75z" fill="#403D85"/><path fill-rule="evenodd" clip-rule="evenodd" d="M94.029 88.965l.91.52-.93.48-.52.92-.49-.93-.91-.53.93-.48.52-.92.49.94zM146.019 109.285l.91.52-.93.49-.52.91-.49-.93-.91-.52.93-.49.52-.91.49.93z" fill="#403D85"/><path fill-rule="evenodd" clip-rule="evenodd" d="M78.937 103.26l1.8 1.03-1.84.96-1.02 1.8-.97-1.83-1.8-1.03 1.84-.97 1.03-1.8.96 1.84z" fill="#fff"/><path d="M13.8 124.199c.48 0 .48-.75 0-.75s-.48.75 0 .75zM27.44 132.289c.48 0 .48-.75 0-.75-.49 0-.49.75 0 .75zM27.2 122.359c.48 0 .48-.75 0-.75s-.48.75 0 .75zM37.14 136.221c.48 0 .48-.75 0-.75s-.49.75 0 .75z" fill="#403D85"/><path fill-rule="evenodd" clip-rule="evenodd" d="M34.46 127.52l.91.52-.93.49-.52.91-.49-.93-.91-.52.93-.49.52-.91.49.93z" fill="#403D85"/><circle cx="41.021" cy="33.35" r="1.487" fill="#403D85"/><circle cx="130.108" cy="131.526" r="1.487" fill="#403D85"/><circle opacity=".8" cx="61.968" cy="19.6" r="1.487" fill="#403D85"/><circle opacity=".8" cx="87.216" cy="8.276" r=".686" fill="#403D85"/><path fill="url(#paint0_linear)" d="M60.889 114.164h18.578v24.593H60.889z"/><path d="M33.727 62.443c-7.44 15.755 4.801 40.137 28.826 56.139 24.025 16.002 51.241 17.901 62.912 4.964L33.727 62.443z" fill="url(#paint1_linear)"/><path d="M42.509 141.83a3.074 3.074 0 013.074-3.074h49.19a3.074 3.074 0 013.073 3.074v4.612H42.51v-4.612z" fill="#211E70"/><path stroke="#373389" stroke-width="1.537" d="M97.948 65.152l-40.496 13.66M98.214 65.33l3.003 42.63M98.342 64.85L78.743 94.275"/><rect x="34.679" y="59.219" width="112.212" height="4.749" rx="2.375" transform="rotate(33.666 34.68 59.219)" fill="#1E1B68"/><circle cx="98.123" cy="64.424" r="4.5" fill="#373389"/><path fill-rule="evenodd" clip-rule="evenodd" d="M159.933 146.441c-16.501 20.277-41.699 33.236-69.933 33.236-28.235 0-53.432-12.959-69.933-33.236h139.866z" fill="#0A0923" fill-opacity=".3"/><path fill-rule="evenodd" clip-rule="evenodd" d="M164.208 61.42h-40.653a5.659 5.659 0 01-5.664-5.654V15.172a5.659 5.659 0 015.664-5.654h40.653a5.66 5.66 0 015.666 5.654v40.594a5.66 5.66 0 01-5.666 5.654z" fill="url(#paint2_linear)"/><g clip-path="url(#clip0)" fill="#fff"><path d="M154.401 23.87h-21.179a3.81 3.81 0 00-3.811 3.797V43.5a3.81 3.81 0 003.811 3.798h21.179a3.808 3.808 0 003.81-3.798V27.667a3.808 3.808 0 00-3.81-3.798zm1.484 19.63c0 .815-.666 1.479-1.484 1.479h-21.179a1.483 1.483 0 01-1.484-1.48V27.668c0-.815.666-1.479 1.484-1.479h21.179c.818 0 1.484.664 1.484 1.48V43.5z"/><path d="M158.001 27.003a1.166 1.166 0 00-1.62-.285l-12.57 8.77-12.569-8.77a1.165 1.165 0 00-1.62.285 1.156 1.156 0 00.286 1.614l13.236 9.236a1.164 1.164 0 001.334 0l13.237-9.236c.526-.367.654-1.09.286-1.614z"/></g><defs><linearGradient id="paint0_linear" x1="70.178" y1="138.757" x2="70.178" y2="114.164" gradientUnits="userSpaceOnUse"><stop offset="0" stop-color="#1E1B6D"/><stop offset="1" stop-color="#15154E"/></linearGradient><linearGradient id="paint1_linear" x1="62.554" y1="118.582" x2="79.596" y2="92.995" gradientUnits="userSpaceOnUse"><stop offset="0" stop-color="#1E1B6D"/><stop offset="1" stop-color="#15154E"/></linearGradient><linearGradient id="paint2_linear" x1="74" y1="100" x2="170" y2="16" gradientUnits="userSpaceOnUse"><stop stop-color="#E9507D"/><stop offset="1" stop-color="#9B32A5"/></linearGradient><clipPath id="clip0"><path fill="#fff" transform="translate(129.411 21.23)" d="M0 0h28.8v28.706H0z"/></clipPath></defs></svg>
